wp-content/themes/villarrealbegum/images/footer_icon_1.svg

<svg enable-background="new 0 0 63.5 48.1" height="48.1" viewBox="0 0 63.5 48.1" width="63.5" xmlns="http://www.w3.org/2000/svg"><path d="m61.25 14.16h-6.59v-.85c0-1.24-1.01-2.25-2.25-2.25h-.18c-.09-1.15-1.06-2.06-2.24-2.06h-1.07c-3.33 0-5.07-.14-6.34-.98v-1.53c0-1.24-1.01-2.25-2.25-2.25h-.88c-.68-1.39-2.65-4.24-7.4-4.24-4.74 0-6.72 2.85-7.4 4.24h-.88c-1.24 0-2.25 1.01-2.25 2.25v1.53c-1.26.84-3 .98-6.33.98h-1.07c-1.18 0-2.15.91-2.24 2.06h-.18c-1.24 0-2.25 1.01-2.25 2.25v.85h-7.2c-1.24 0-2.25 1.01-2.25 2.25v29.44c0 1.24 1.01 2.25 2.25 2.25h25.71c1.24 0 2.25-1.01 2.25-2.25v-10.27c0-1.9 1.26-2.1 1.8-2.1h.06c.55 0 1.83.21 1.83 2.1v10.27c0 1.24 1.01 2.25 2.25 2.25h25.1c1.24 0 2.25-1.01 2.25-2.25v-29.44c0-1.24-1.01-2.25-2.25-2.25zm-29.15 16.82h-.09c-2.07 0-4.3 1.44-4.3 4.6v10.02h-25.21v-28.94h9.45v-3.1h2.42v-2.06h.82c4.05 0 6.66-.15 8.77-2.26l.07-.07v-2.43h2.52v-.25c0-.62 1.02-3.99 5.51-3.99 4.5 0 5.51 3.37 5.51 3.99v.25h2.52v2.43l.07.07c2.11 2.11 4.72 2.26 8.76 2.26h.82v2.06h2.42v3.1h8.84v28.94h-24.6v-10.02c0-3.16-2.23-4.6-4.3-4.6z"/><path d="m10.42 29.84h-3.01c-1.24 0-2.25 1.01-2.25 2.25v4.55c0 1.24 1.01 2.25 2.25 2.25h3.01c1.24 0 2.25-1.01 2.25-2.25v-4.55c0-1.24-1.01-2.25-2.25-2.25zm-.25 2.5v4.05h-2.51v-4.05z"/><path d="m10.42 18.58h-3.01c-1.24 0-2.25 1.01-2.25 2.25v4.55c0 1.24 1.01 2.25 2.25 2.25h3.01c1.24 0 2.25-1.01 2.25-2.25v-4.55c0-1.25-1.01-2.25-2.25-2.25zm-.25 2.5v4.05h-2.51v-4.05z"/><path d="m20.19 29.12c-2.27 0-4.69 1.71-4.69 4.87v6.87c0 1.24 1.01 2.25 2.25 2.25h4.93c1.24 0 2.25-1.01 2.25-2.25v-6.87c0-3.16-2.44-4.87-4.74-4.87zm2.24 4.87v6.62h-4.43v-6.62c0-1.64 1.1-2.37 2.19-2.37 1.08 0 2.24.74 2.24 2.37z"/><path d="m20.19 13.64c-2.27 0-4.69 1.71-4.69 4.87v6.87c0 1.24 1.01 2.25 2.25 2.25h4.93c1.24 0 2.25-1.01 2.25-2.25v-6.87c0-3.16-2.44-4.87-4.74-4.87zm2.24 4.87v6.62h-4.43v-6.62c0-1.64 1.1-2.37 2.19-2.37 1.08 0 2.24.74 2.24 2.37z"/><path d="m37.36 25.38v-9.45c0-1.24-1.01-2.25-2.25-2.25h-6.11c-1.24 0-2.25 1.01-2.25 2.25v9.45c0 1.24 1.01 2.25 2.25 2.25h6.1c1.25 0 2.26-1.01 2.26-2.25zm-2.5-9.2v8.95h-5.6v-8.95z"/><path d="m41.43 43.11h4.93c1.24 0 2.25-1.01 2.25-2.25v-6.87c0-3.16-2.42-4.87-4.69-4.87-2.3 0-4.74 1.71-4.74 4.87v6.87c0 1.24 1.01 2.25 2.25 2.25zm.25-2.5v-6.62c0-1.63 1.16-2.37 2.24-2.37 1.09 0 2.19.73 2.19 2.37v6.62z"/><path d="m41.43 27.63h4.93c1.24 0 2.25-1.01 2.25-2.25v-6.87c0-3.16-2.42-4.87-4.69-4.87-2.3 0-4.74 1.71-4.74 4.87v6.87c0 1.24 1.01 2.25 2.25 2.25zm.25-2.5v-6.62c0-1.63 1.16-2.37 2.24-2.37 1.09 0 2.19.73 2.19 2.37v6.62z"/><path d="m53.68 38.9h3.01c1.24 0 2.25-1.01 2.25-2.25v-4.55c0-1.24-1.01-2.25-2.25-2.25h-3.01c-1.24 0-2.25 1.01-2.25 2.25v4.55c0 1.24 1.01 2.25 2.25 2.25zm.25-2.5v-4.05h2.51v4.05z"/><path d="m53.68 27.63h3.01c1.24 0 2.25-1.01 2.25-2.25v-4.55c0-1.24-1.01-2.25-2.25-2.25h-3.01c-1.24 0-2.25 1.01-2.25 2.25v4.55c0 1.24 1.01 2.25 2.25 2.25zm.25-2.5v-4.05h2.51v4.05z"/></svg>

<?xml version="1.0" encoding="utf-8"?>
<!-- Generator: Adobe Illustrator 24.0.1, SVG Export Plug-In . SVG Version: 6.00 Build 0)  -->
<svg version="1.1" id="cactus" xmlns="http://www.w3.org/2000/svg" xmlns:xlink="http://www.w3.org/1999/xlink" x="0px" y="0px"
	 width="63.5px" height="48.1px" viewBox="0 0 63.5 48.1" style="enable-background:new 0 0 63.5 48.1;" xml:space="preserve">
<g>
	<path d="M61.25,14.16h-6.59v-0.85c0-1.24-1.01-2.25-2.25-2.25h-0.18C52.14,9.91,51.17,9,49.99,9h-1.07c-3.33,0-5.07-0.14-6.34-0.98
		V6.49c0-1.24-1.01-2.25-2.25-2.25h-0.88C38.77,2.85,36.8,0,32.05,0c-4.74,0-6.72,2.85-7.4,4.24h-0.88c-1.24,0-2.25,1.01-2.25,2.25
		v1.53C20.26,8.86,18.52,9,15.19,9h-1.07c-1.18,0-2.15,0.91-2.24,2.06H11.7c-1.24,0-2.25,1.01-2.25,2.25v0.85h-7.2
		C1.01,14.16,0,15.17,0,16.41v29.44c0,1.24,1.01,2.25,2.25,2.25h25.71c1.24,0,2.25-1.01,2.25-2.25V35.58c0-1.9,1.26-2.1,1.8-2.1
		h0.06c0.55,0,1.83,0.21,1.83,2.1v10.27c0,1.24,1.01,2.25,2.25,2.25h25.1c1.24,0,2.25-1.01,2.25-2.25V16.41
		C63.5,15.17,62.49,14.16,61.25,14.16z M32.1,30.98h-0.09c-2.07,0-4.3,1.44-4.3,4.6V45.6H2.5V16.66h9.45v-3.1h2.42V11.5h0.82
		c4.05,0,6.66-0.15,8.77-2.26l0.07-0.07V6.74h2.52V6.49c0-0.62,1.02-3.99,5.51-3.99c4.5,0,5.51,3.37,5.51,3.99v0.25h2.52v2.43
		l0.07,0.07c2.11,2.11,4.72,2.26,8.76,2.26h0.82v2.06h2.42v3.1H61V45.6H36.4V35.58C36.4,32.42,34.17,30.98,32.1,30.98z"/>
	<path d="M10.42,29.84H7.41c-1.24,0-2.25,1.01-2.25,2.25v4.55c0,1.24,1.01,2.25,2.25,2.25h3.01c1.24,0,2.25-1.01,2.25-2.25v-4.55
		C12.67,30.85,11.66,29.84,10.42,29.84z M10.17,32.34v4.05H7.66v-4.05H10.17z"/>
	<path d="M10.42,18.58H7.41c-1.24,0-2.25,1.01-2.25,2.25v4.55c0,1.24,1.01,2.25,2.25,2.25h3.01c1.24,0,2.25-1.01,2.25-2.25v-4.55
		C12.67,19.58,11.66,18.58,10.42,18.58z M10.17,21.08v4.05H7.66v-4.05H10.17z"/>
	<path d="M20.19,29.12L20.19,29.12c-2.27,0-4.69,1.71-4.69,4.87v6.87c0,1.24,1.01,2.25,2.25,2.25h4.93c1.24,0,2.25-1.01,2.25-2.25
		v-6.87C24.93,30.83,22.49,29.12,20.19,29.12z M22.43,33.99v6.62H18v-6.62c0-1.64,1.1-2.37,2.19-2.37
		C21.27,31.62,22.43,32.36,22.43,33.99z"/>
	<path d="M20.19,13.64c-2.27,0-4.69,1.71-4.69,4.87v6.87c0,1.24,1.01,2.25,2.25,2.25h4.93c1.24,0,2.25-1.01,2.25-2.25v-6.87
		C24.93,15.35,22.49,13.64,20.19,13.64z M22.43,18.51v6.62H18v-6.62c0-1.64,1.1-2.37,2.19-2.37C21.27,16.14,22.43,16.88,22.43,18.51
		z"/>
	<path d="M37.36,25.38v-9.45c0-1.24-1.01-2.25-2.25-2.25H29c-1.24,0-2.25,1.01-2.25,2.25v9.45c0,1.24,1.01,2.25,2.25,2.25h6.1
		C36.35,27.63,37.36,26.62,37.36,25.38z M34.86,16.18v8.95h-5.6v-8.95H34.86z"/>
	<path d="M41.43,43.11h4.93c1.24,0,2.25-1.01,2.25-2.25v-6.87c0-3.16-2.42-4.87-4.69-4.87h0c-2.3,0-4.74,1.71-4.74,4.87v6.87
		C39.18,42.1,40.19,43.11,41.43,43.11z M41.68,40.61v-6.62c0-1.63,1.16-2.37,2.24-2.37c1.09,0,2.19,0.73,2.19,2.37v6.62H41.68z"/>
	<path d="M41.43,27.63h4.93c1.24,0,2.25-1.01,2.25-2.25v-6.87c0-3.16-2.42-4.87-4.69-4.87c-2.3,0-4.74,1.71-4.74,4.87v6.87
		C39.18,26.62,40.19,27.63,41.43,27.63z M41.68,25.13v-6.62c0-1.63,1.16-2.37,2.24-2.37c1.09,0,2.19,0.73,2.19,2.37v6.62H41.68z"/>
	<path d="M53.68,38.9h3.01c1.24,0,2.25-1.01,2.25-2.25v-4.55c0-1.24-1.01-2.25-2.25-2.25h-3.01c-1.24,0-2.25,1.01-2.25,2.25v4.55
		C51.43,37.89,52.44,38.9,53.68,38.9z M53.93,36.4v-4.05h2.51v4.05H53.93z"/>
	<path d="M53.68,27.63h3.01c1.24,0,2.25-1.01,2.25-2.25v-4.55c0-1.24-1.01-2.25-2.25-2.25h-3.01c-1.24,0-2.25,1.01-2.25,2.25v4.55
		C51.43,26.62,52.44,27.63,53.68,27.63z M53.93,25.13v-4.05h2.51v4.05H53.93z"/>
</g>
</svg>
